src/assets/link.svg

<svg fill="none" height="16" viewBox="0 0 17 16" width="17" xmlns="http://www.w3.org/2000/svg"><g stroke="#767f8d" stroke-linecap="round" stroke-linejoin="round" stroke-width="1.25"><path d="m12.0781 8.66667v4.00003c0 .3536-.1405.6927-.3905.9428-.25.25-.5892.3905-.9428.3905h-7.33334c-.35362 0-.69276-.1405-.94281-.3905-.25005-.2501-.39052-.5892-.39053-.9428v-7.33337c0-.35362.14048-.69276.39053-.94281.25005-.25004.58919-.39052.94281-.39052h4"/><path d="m10.0781 2h4v4"/><path d="m6.74512 9.33333 7.33328-7.33333"/></g></svg>

<svg width="17" height="16" viewBox="0 0 17 16" fill="none" xmlns="http://www.w3.org/2000/svg">
<path d="M12.0781 8.66667V12.6667C12.0781 13.0203 11.9376 13.3594 11.6876 13.6095C11.4376 13.8595 11.0984 14 10.7448 14H3.41146C3.05784 14 2.7187 13.8595 2.46865 13.6095C2.2186 13.3594 2.07813 13.0203 2.07812 12.6667V5.33333C2.07812 4.97971 2.2186 4.64057 2.46865 4.39052C2.7187 4.14048 3.05784 4 3.41146 4H7.41146" stroke="#767F8D" stroke-width="1.25" stroke-linecap="round" stroke-linejoin="round"/>
<path d="M10.0781 2H14.0781V6" stroke="#767F8D" stroke-width="1.25" stroke-linecap="round" stroke-linejoin="round"/>
<path d="M6.74512 9.33333L14.0784 2" stroke="#767F8D" stroke-width="1.25" stroke-linecap="round" stroke-linejoin="round"/>
</svg>
